src/assets/tokens/WETH.svg

<svg height="141" viewBox="0 0 148 141" width="148" xmlns="http://www.w3.org/2000/svg"><g fill="none" fill-rule="evenodd"><g fill-rule="nonzero"><circle cx="80.8" cy="73.8" fill="#fff" r="65.2"/><path d="m5.7 56.5c-.7 3.7-1 7.5-1 11.3 0 21.4 10.7 40.3 27 51.7-11.2-12-18-28.1-18-45.7 0-37 30.1-67.2 67.2-67.2 1 0 2.1 0 3.1.1-5.1-1.4-10.5-2.1-16.1-2.1-30.6.1-56.7 21.9-62.2 51.9z" fill="#ed1e79"/><g fill="#000"><path d="m37.6 0h-8.3c-.3 0-.5.1-.5.4l-5.8 15.4h-.1l-1.2-15.3c0-.3-.2-.4-.5-.4h-4.9c-.3 0-.5.1-.6.4l-6.4 15.3h-.1l-.4-15.3c0-.3-.2-.4-.5-.4h-7.8c-.2 0-.3.1-.3.4l3 27.2c0 .3.2.4.5.4h6c.3 0 .5-.1.6-.4l6.3-14h.1l1.4 14c0 .3.2.4.5.4h6c.3 0 .5-.1.6-.4l12.6-27.2c.2-.3.1-.5-.2-.5" transform="translate(28 60)"/><path d="m24.2 0h-18.2c-.2 0-.4.1-.4.4l-4.8 27.2c-.1.3.1.4.3.4h18.1c.2 0 .4-.1.5-.4l1.1-6.1c.1-.3-.1-.4-.3-.4h-10c-.1 0-.2-.1-.2-.2l.6-3.3c0-.2.1-.2.2-.2h8.1c.3 0 .4-.1.5-.4l1-5.9c.1-.3-.1-.4-.3-.4h-8.1c-.2 0-.2-.1-.2-.2l.5-3.1c0-.2.1-.2.2-.2h10.2c.2 0 .4-.1.4-.4l1.1-6.1c.1-.5 0-.7-.3-.7" transform="translate(62 60)"/><path d="m23.4 7 1.2-6.5c.1-.3-.1-.4-.4-.4h-21.7c-.2 0-.4.1-.5.4l-1.1 6.5c-.1.3.1.4.4.4h6.4c.1 0 .2.1.2.2l-3.5 20c-.1.3.1.4.4.4h7.5c.2 0 .4-.1.5-.4l3.5-20c0-.2.1-.2.3-.2h6.5c.1 0 .2-.1.3-.4" transform="translate(86 60)"/><path d="m28.1 0h-7.5c-.2 0-.4.1-.5.4l-1.7 9.4c-.1.2-.2.2-.3.2h-5.7c-.2 0-.2-.1-.2-.2l1.6-9.4c.1-.3-.1-.4-.4-.4h-7.5c-.2 0-.4.1-.5.4l-4.8 27.2c-.1.3.1.4.4.4h7.5c.2 0 .4-.1.5-.4l1.8-9.9c0-.2.1-.2.2-.2h5.7c.2 0 .2.1.2.2l-1.7 9.9c-.1.3.1.4.4.4h7.5c.2 0 .4-.1.5-.4l4.8-27.2c.1-.2 0-.4-.3-.4" transform="translate(107 60)"/></g></g><path d="m13.7 73.8c0-2.8.2-5.6.5-8.4l-8.9-5.9c-.4 2.7-.5 5.5-.5 8.3 0 1.8.1 3.5.2 5.3l8.9 6c-.1-1.7-.2-3.5-.2-5.3z"/><path d="m5.6 78.4c2.9 17 12.5 31.6 26.1 41.1-8.9-9.5-15-21.7-17.2-35.1z"/><path d="m80.8 6.7c1 0 2.1 0 3.1.1-5.1-1.4-10.5-2.1-16.1-2.1-30.2 0-56 21.2-61.9 50.6l8.9 5.8c6.1-31 33.4-54.4 66-54.4z"/><path d="m117 22.1c-5-3.5-10.4-6.3-16.3-8.2-6.3-2.1-12.9-3.2-19.9-3.2-34.8 0-63.1 28.3-63.1 63.1 0 22.8 12.2 42.8 30.3 53.9 5.2 3.1 10.8 5.6 16.8 7.1 5.1 1.4 10.5 2.1 16.1 2.1 34.8 0 63.2-28.3 63.2-63.2-.1-21.2-10.8-40.2-27.1-51.6z"/><path d="m102.4 10.2c-10.1-6-21.9-9.5-34.5-9.5-32.5 0-60.3 23.2-66.1 55.1-.7 3.9-1.1 8-1.1 12 0 29.5 19.1 54.6 45.6 63.6 10.1 6.1 21.9 9.6 34.5 9.6 37 0 67.2-30.1 67.2-67.2 0-29.5-19.1-54.5-45.6-63.6zm-34.5-5.5c5.6 0 10.9.7 16.1 2.1-1 0-2.1-.1-3.1-.1-32.7 0-60 23.5-65.9 54.4l-9-5.8c5.9-29.4 31.7-50.6 61.9-50.6zm-63.2 63.1c0-2.8.2-5.5.5-8.3l8.9 5.9c-.3 2.8-.5 5.5-.5 8.4 0 1.8.1 3.6.2 5.3l-8.9-6c-.1-1.7-.2-3.5-.2-5.3zm.9 10.6 8.9 6c2.1 13.4 8.3 25.6 17.2 35.1-13.6-9.5-23.2-24.1-26.1-41.1zm75.2 58.6c-5.6 0-10.9-.7-16.1-2.1-6-1.6-11.6-4-16.8-7.1-18.2-11.1-30.3-31.1-30.3-53.9.1-34.9 28.4-63.2 63.2-63.2 7 0 13.6 1.1 19.9 3.2 5.9 2 11.3 4.7 16.3 8.2 16.3 11.4 27 30.3 27 51.7 0 34.9-28.3 63.2-63.2 63.2z" fill="#000" fill-rule="nonzero"/></g></svg>

<?xml version="1.0" encoding="UTF-8"?>
<svg width="148px" height="141px" viewBox="0 0 148 141" version="1.1" xmlns="http://www.w3.org/2000/svg" xmlns:xlink="http://www.w3.org/1999/xlink">
    <defs></defs>
    <g id="Page-1" stroke="none" stroke-width="1" fill="none" fill-rule="evenodd">
        <g id="weth-token-01">
            <circle id="Oval" fill="#FFFFFF" fill-rule="nonzero" cx="80.8" cy="73.8" r="65.2"></circle>
            <path d="M5.7,56.5 C5,60.2 4.7,64 4.7,67.8 C4.7,89.2 15.4,108.1 31.7,119.5 C20.5,107.5 13.7,91.4 13.7,73.8 C13.7,36.8 43.8,6.6 80.9,6.6 C81.9,6.6 83,6.6 84,6.7 C78.9,5.3 73.5,4.6 67.9,4.6 C37.3,4.7 11.2,26.5 5.7,56.5 Z" id="Shape" fill="#ED1E79" fill-rule="nonzero"></path>
            <g id="Group" transform="translate(28.000000, 60.000000)" fill="#000000" fill-rule="nonzero">
                <g id="Fill-5_2_">
                    <path d="M37.6,0 L29.3,0 C29,0 28.8,0.1 28.8,0.4 L23,15.8 L22.9,15.8 L21.7,0.5 C21.7,0.2 21.5,0.1 21.2,0.1 L16.3,0.1 C16,0.1 15.8,0.2 15.7,0.5 L9.3,15.8 L9.2,15.8 L8.8,0.5 C8.8,0.2 8.6,0.1 8.3,0.1 L0.5,0.1 C0.3,0.1 0.2,0.2 0.2,0.5 L3.2,27.7 C3.2,28 3.4,28.1 3.7,28.1 L9.7,28.1 C10,28.1 10.2,28 10.3,27.7 L16.6,13.7 L16.7,13.7 L18.1,27.7 C18.1,28 18.3,28.1 18.6,28.1 L24.6,28.1 C24.9,28.1 25.1,28 25.2,27.7 L37.8,0.5 C38,0.2 37.9,0 37.6,0" id="Shape"></path>
                </g>
                <g id="Fill-7_2_" transform="translate(34.000000, 0.000000)">
                    <path d="M24.2,0 L6,0 C5.8,0 5.6,0.1 5.6,0.4 L0.8,27.6 C0.7,27.9 0.9,28 1.1,28 L19.2,28 C19.4,28 19.6,27.9 19.7,27.6 L20.8,21.5 C20.9,21.2 20.7,21.1 20.5,21.1 L10.5,21.1 C10.4,21.1 10.3,21 10.3,20.9 L10.9,17.6 C10.9,17.4 11,17.4 11.1,17.4 L19.2,17.4 C19.5,17.4 19.6,17.3 19.7,17 L20.7,11.1 C20.8,10.8 20.6,10.7 20.4,10.7 L12.3,10.7 C12.1,10.7 12.1,10.6 12.1,10.5 L12.6,7.4 C12.6,7.2 12.7,7.2 12.8,7.2 L23,7.2 C23.2,7.2 23.4,7.1 23.4,6.8 L24.5,0.7 C24.6,0.2 24.5,0 24.2,0" id="Shape"></path>
                </g>
                <g id="Fill-9_2_" transform="translate(58.000000, 0.000000)">
                    <path d="M23.4,7 L24.6,0.5 C24.7,0.2 24.5,0.1 24.2,0.1 L2.5,0.1 C2.3,0.1 2.1,0.2 2,0.5 L0.9,7 C0.8,7.3 1,7.4 1.3,7.4 L7.7,7.4 C7.8,7.4 7.9,7.5 7.9,7.6 L4.4,27.6 C4.3,27.9 4.5,28 4.8,28 L12.3,28 C12.5,28 12.7,27.9 12.8,27.6 L16.3,7.6 C16.3,7.4 16.4,7.4 16.6,7.4 L23.1,7.4 C23.2,7.4 23.3,7.3 23.4,7" id="Shape"></path>
                </g>
                <g id="Fill-11_2_" transform="translate(79.000000, 0.000000)">
                    <path d="M28.1,0 L20.6,0 C20.4,0 20.2,0.1 20.1,0.4 L18.4,9.8 C18.3,10 18.2,10 18.1,10 L12.4,10 C12.2,10 12.2,9.9 12.2,9.8 L13.8,0.4 C13.9,0.1 13.7,0 13.4,0 L5.9,0 C5.7,0 5.5,0.1 5.4,0.4 L0.6,27.6 C0.5,27.9 0.7,28 1,28 L8.5,28 C8.7,28 8.9,27.9 9,27.6 L10.8,17.7 C10.8,17.5 10.9,17.5 11,17.5 L16.7,17.5 C16.9,17.5 16.9,17.6 16.9,17.7 L15.2,27.6 C15.1,27.9 15.3,28 15.6,28 L23.1,28 C23.3,28 23.5,27.9 23.6,27.6 L28.4,0.4 C28.5,0.2 28.4,0 28.1,0" id="Shape"></path>
                </g>
            </g>
            <g id="Group">
                <path d="M13.7,73.8 C13.7,71 13.9,68.2 14.2,65.4 L5.3,59.5 C4.9,62.2 4.8,65 4.8,67.8 C4.8,69.6 4.9,71.3 5,73.1 L13.9,79.1 C13.8,77.4 13.7,75.6 13.7,73.8 Z" id="Shape"></path>
                <path d="M5.6,78.4 C8.5,95.4 18.1,110 31.7,119.5 C22.8,110 16.7,97.8 14.5,84.4 L5.6,78.4 Z" id="Shape"></path>
                <path d="M80.8,6.7 C81.8,6.7 82.9,6.7 83.9,6.8 C78.8,5.4 73.4,4.7 67.8,4.7 C37.6,4.7 11.8,25.9 5.9,55.3 L14.8,61.1 C20.9,30.1 48.2,6.7 80.8,6.7 Z" id="Shape"></path>
                <path d="M117,22.1 C112,18.6 106.6,15.8 100.7,13.9 C94.4,11.8 87.8,10.7 80.8,10.7 C46,10.7 17.7,39 17.7,73.8 C17.7,96.6 29.9,116.6 48,127.7 C53.2,130.8 58.8,133.3 64.8,134.8 C69.9,136.2 75.3,136.9 80.9,136.9 C115.7,136.9 144.1,108.6 144.1,73.7 C144,52.5 133.3,33.5 117,22.1 Z" id="Shape"></path>
                <path d="M102.4,10.2 C92.3,4.2 80.5,0.7 67.9,0.7 C35.4,0.7 7.6,23.9 1.8,55.8 C1.1,59.7 0.7,63.8 0.7,67.8 C0.7,97.3 19.8,122.4 46.3,131.4 C56.4,137.5 68.2,141 80.8,141 C117.8,141 148,110.9 148,73.8 C148,44.3 128.9,19.3 102.4,10.2 Z M67.9,4.7 C73.5,4.7 78.8,5.4 84,6.8 C83,6.8 81.9,6.7 80.9,6.7 C48.2,6.7 20.9,30.2 15,61.1 L6,55.3 C11.9,25.9 37.7,4.7 67.9,4.7 Z M4.7,67.8 C4.7,65 4.9,62.3 5.2,59.5 L14.1,65.4 C13.8,68.2 13.6,70.9 13.6,73.8 C13.6,75.6 13.7,77.4 13.8,79.1 L4.9,73.1 C4.8,71.4 4.7,69.6 4.7,67.8 Z M5.6,78.4 L14.5,84.4 C16.6,97.8 22.8,110 31.7,119.5 C18.1,110 8.5,95.4 5.6,78.4 Z M80.8,137 C75.2,137 69.9,136.3 64.7,134.9 C58.7,133.3 53.1,130.9 47.9,127.8 C29.7,116.7 17.6,96.7 17.6,73.9 C17.7,39 46,10.7 80.8,10.7 C87.8,10.7 94.4,11.8 100.7,13.9 C106.6,15.9 112,18.6 117,22.1 C133.3,33.5 144,52.4 144,73.8 C144,108.7 115.7,137 80.8,137 Z" id="Shape" fill="#000000" fill-rule="nonzero"></path>
            </g>
        </g>
    </g>
</svg>
